; G-Code generated by Simplify3D(R) Version 4.0.1
; Jun 20, 2018 at 9:11:29 PM
; Settings Summary
;   processName,PETG
;   applyToModels,bed_bottom_bearring - middle
;   profileName,Delta (modified)
;   profileVersion,2018-06-13 09:27:39
;   baseProfile,Kossel Mini
;   printMaterial,PETG
;   printQuality,Medium
;   printExtruders,
;   extruderName,Primary Extruder
;   extruderToolheadNumber,0
;   extruderDiameter,0.4
;   extruderAutoWidth,0
;   extruderWidth,0.42
;   extrusionMultiplier,1
;   extruderUseRetract,1
;   extruderRetractionDistance,5
;   extruderExtraRestartDistance,0
;   extruderRetractionZLift,0
;   extruderRetractionSpeed,1800
;   extruderUseCoasting,0
;   extruderCoastingDistance,1
;   extruderUseWipe,0
;   extruderWipeDistance,5
;   primaryExtruder,0
;   layerHeight,0.2
;   topSolidLayers,3
;   bottomSolidLayers,3
;   perimeterOutlines,3
;   printPerimetersInsideOut,1
;   startPointOption,2
;   startPointOriginX,0
;   startPointOriginY,0
;   sequentialIslands,0
;   spiralVaseMode,0
;   firstLayerHeightPercentage,90
;   firstLayerWidthPercentage,100
;   firstLayerUnderspeed,0.5
;   useRaft,0
;   raftExtruder,0
;   raftTopLayers,3
;   raftBaseLayers,2
;   raftOffset,3
;   raftSeparationDistance,0.14
;   raftTopInfill,100
;   aboveRaftSpeedMultiplier,0.3
;   useSkirt,1
;   skirtExtruder,0
;   skirtLayers,1
;   skirtOutlines,3
;   skirtOffset,10
;   usePrimePillar,0
;   primePillarExtruder,999
;   primePillarWidth,12
;   primePillarLocation,7
;   primePillarSpeedMultiplier,1
;   useOozeShield,0
;   oozeShieldExtruder,999
;   oozeShieldOffset,2
;   oozeShieldOutlines,1
;   oozeShieldSidewallShape,1
;   oozeShieldSidewallAngle,30
;   oozeShieldSpeedMultiplier,1
;   infillExtruder,0
;   internalInfillPattern,Rectilinear
;   externalInfillPattern,Rectilinear
;   infillPercentage,20
;   outlineOverlapPercentage,15
;   infillExtrusionWidthPercentage,150
;   minInfillLength,5
;   infillLayerInterval,1
;   internalInfillAngles,45,-45
;   overlapInternalInfillAngles,0
;   externalInfillAngles,45,-45
;   generateSupport,0
;   supportExtruder,0
;   supportInfillPercentage,30
;   supportExtraInflation,0
;   supportBaseLayers,0
;   denseSupportExtruder,0
;   denseSupportLayers,0
;   denseSupportInfillPercentage,70
;   supportLayerInterval,1
;   supportHorizontalPartOffset,0.3
;   supportUpperSeparationLayers,1
;   supportLowerSeparationLayers,1
;   supportType,0
;   supportGridSpacing,4
;   maxOverhangAngle,45
;   supportAngles,0
;   temperatureName,Primary Extruder,Heated Bed
;   temperatureNumber,0,1
;   temperatureSetpointCount,1,1
;   temperatureSetpointLayers,1,1
;   temperatureSetpointTemperatures,230,75
;   temperatureStabilizeAtStartup,1,1
;   temperatureHeatedBed,0,1
;   temperatureRelayBetweenLayers,0,0
;   temperatureRelayBetweenLoops,0,0
;   fanLayers,1,5
;   fanSpeeds,0,40
;   blipFanToFullPower,1
;   adjustSpeedForCooling,1
;   minSpeedLayerTime,15
;   minCoolingSpeedSlowdown,20
;   increaseFanForCooling,0
;   minFanLayerTime,60
;   maxCoolingFanSpeed,100
;   increaseFanForBridging,0
;   bridgingFanSpeed,100
;   use5D,1
;   relativeEdistances,0
;   allowEaxisZeroing,1
;   independentExtruderAxes,0
;   includeM10123,0
;   stickySupport,1
;   applyToolheadOffsets,0
;   gcodeXoffset,0
;   gcodeYoffset,0
;   gcodeZoffset,-0.38
;   overrideMachineDefinition,1
;   machineTypeOverride,1
;   strokeXoverride,200
;   strokeYoverride,200
;   strokeZoverride,200
;   originOffsetXoverride,100
;   originOffsetYoverride,100
;   originOffsetZoverride,0
;   homeXdirOverride,0
;   homeYdirOverride,0
;   homeZdirOverride,1
;   flipXoverride,1
;   flipYoverride,-1
;   flipZoverride,1
;   toolheadOffsets,0,0|0,0|0,0|0,0|0,0|0,0
;   overrideFirmwareConfiguration,1
;   firmwareTypeOverride,RepRap (Marlin/Repetier/Sprinter)
;   GPXconfigOverride,r2
;   baudRateOverride,115200
;   overridePrinterModels,1
;   printerModelsOverride
;   startingGcode,G28 ; home all axes
;   layerChangeGcode,
;   retractionGcode,
;   toolChangeGcode,
;   endingGcode,M104 S0 ; turn off extruder,M140 S0 ; turn off bed,G28 ; home axes,M84 ; disable motors,M107 ; fan off
;   exportFileFormat,gcode
;   celebration,0
;   celebrationSong,Random Song
;   postProcessing,
;   defaultSpeed,2100
;   outlineUnderspeed,0.5
;   solidInfillUnderspeed,0.6
;   supportUnderspeed,0.6
;   rapidXYspeed,4200
;   rapidZspeed,2100
;   minBridgingArea,50
;   bridgingExtraInflation,0
;   bridgingExtrusionMultiplier,0.95
;   bridgingSpeedMultiplier,0.7
;   useFixedBridgingAngle,0
;   fixedBridgingAngle,0
;   applyBridgingToPerimeters,0
;   filamentDiameters,1.75|1.75|1.75|1.75|1.75|1.75
;   filamentPricesPerKg,46|46|46|46|46|46
;   filamentDensities,1.25|1.25|1.25|1.25|1.25|1.25
;   useMinPrintHeight,0
;   minPrintHeight,0
;   useMaxPrintHeight,0
;   maxPrintHeight,200
;   useDiaphragm,0
;   diaphragmLayerInterval,20
;   robustSlicing,1
;   mergeAllIntoSolid,0
;   onlyRetractWhenCrossingOutline,1
;   retractBetweenLayers,1
;   useRetractionMinTravel,0
;   retractionMinTravel,3
;   retractWhileWiping,0
;   onlyWipeOutlines,1
;   avoidCrossingOutline,0
;   maxMovementDetourFactor,3
;   toolChangeRetractionDistance,12
;   toolChangeExtraRestartDistance,-0.5
;   toolChangeRetractionSpeed,600
;   externalThinWallType,0
;   internalThinWallType,2
;   thinWallAllowedOverlapPercentage,10
;   singleExtrusionMinLength,1
;   singleExtrusionMinPrintingWidthPercentage,50
;   singleExtrusionMaxPrintingWidthPercentage,200
;   singleExtrusionEndpointExtension,0.2
;   horizontalSizeCompensation,0
G90
M82
M106 S255
G4 P500
M106 S0
M140 S75
M190 S75
M104 S230 T0
M109 S230 T0
G28 ; home all axes
G92 E0
G1 E-5.0000 F1800
G1 Z-0.200 F2100
; process PETG
; layer 1, Z = 0.180
T0
; tool H0.200 W0.420
; skirt
G1 X20.153 Y10.905 F4200
G1 E0.0000 F540
G92 E0
G1 X20.350 Y10.660 E0.0110 F1050
G1 X25.688 Y7.049 E0.2361
G1 X25.989 Y6.957 E0.2470
G1 X56.113 Y6.957 E1.2991
G1 X56.414 Y7.049 E1.3101
G1 X61.752 Y10.660 E1.5351
G1 X61.949 Y10.905 E1.5461
G1 X73.522 Y39.783 E2.6326
G1 X73.550 Y39.879 E2.6361
G1 X73.932 Y41.854 E2.7063
G1 X73.941 Y41.954 E2.7098
G1 X73.941 Y67.311 E3.5954
G1 X73.781 Y67.697 E3.6100
G1 X67.628 Y73.850 E3.9139
G1 X67.242 Y74.010 E3.9285
G1 X14.860 Y74.010 E5.7578
G1 X14.474 Y73.850 E5.7724
G1 X8.321 Y67.697 E6.0763
G1 X8.161 Y67.311 E6.0909
G1 X8.161 Y41.954 E6.9764
G1 X8.171 Y41.854 E6.9799
G1 X8.552 Y39.879 E7.0502
G1 X8.580 Y39.783 E7.0537
G1 X20.153 Y10.905 E8.1401
G1 X20.519 Y11.120 F4200
G92 E0
G1 X20.638 Y10.973 E0.0066 F1050
G1 X25.871 Y7.432 E0.2273
G1 X26.052 Y7.377 E0.2339
G1 X56.050 Y7.377 E1.2815
G1 X56.231 Y7.432 E1.2881
G1 X61.464 Y10.973 E1.5088
G1 X61.583 Y11.120 E1.5154
G1 X73.125 Y39.921 E2.5989
G1 X73.142 Y39.978 E2.6010
G1 X73.515 Y41.914 E2.6699
G1 X73.521 Y41.974 E2.6720
G1 X73.521 Y67.227 E3.5539
G1 X73.425 Y67.459 E3.5627
G1 X67.390 Y73.494 E3.8607
G1 X67.158 Y73.590 E3.8695
G1 X14.944 Y73.590 E5.6930
G1 X14.712 Y73.494 E5.7017
G1 X8.677 Y67.459 E5.9998
G1 X8.581 Y67.227 E6.0085
G1 X8.581 Y41.974 E6.8905
G1 X8.587 Y41.914 E6.8926
G1 X8.960 Y39.978 E6.9614
G1 X8.977 Y39.921 E6.9635
G1 X20.519 Y11.120 E8.0471
G1 X20.886 Y11.335 F4200
G92 E0
G1 X20.925 Y11.286 E0.0022 F1050
G1 X26.055 Y7.815 E0.2185
G1 X26.115 Y7.797 E0.2207
G1 X55.987 Y7.797 E1.2639
G1 X56.048 Y7.815 E1.2661
G1 X61.177 Y11.286 E1.4824
G1 X61.216 Y11.335 E1.4846
G1 X72.728 Y40.058 E2.5653
G1 X72.733 Y40.077 E2.5660
G1 X73.099 Y41.974 E2.6334
G1 X73.101 Y41.994 E2.6341
G1 X73.101 Y67.144 E3.5124
G1 X73.069 Y67.221 E3.5153
G1 X67.152 Y73.138 E3.8076
G1 X67.075 Y73.170 E3.8105
G1 X15.027 Y73.170 E5.6282
G1 X14.950 Y73.138 E5.6311
G1 X9.033 Y67.221 E5.9233
G1 X9.001 Y67.144 E5.9262
G1 X9.001 Y41.994 E6.8045
G1 X9.003 Y41.974 E6.8052
G1 X9.369 Y40.077 E6.8727
G1 X9.375 Y40.058 E6.8734
G1 X20.886 Y11.335 E7.9541
G92 E0
G1 E-5.0000 F1800
; inner perimeter
G1 X29.922 Y19.057 F4200
G1 E0.0000 F1800
G92 E0
G1 X52.181 Y19.057 E0.7774 F788
G1 X61.841 Y43.162 E1.6843
G1 X61.841 Y61.910 E2.3390
G1 X20.261 Y61.910 E3.7911
G1 X20.261 Y43.162 E4.4458
G1 X29.922 Y19.057 E5.3527
G1 X29.637 Y18.637 F4200
G92 E0
G1 X52.465 Y18.637 E0.7972 F788
G1 X62.261 Y43.081 E1.7169
G1 X62.261 Y62.330 E2.3891
G1 X19.841 Y62.330 E3.8705
G1 X19.841 Y43.081 E4.5427
G1 X29.637 Y18.637 E5.4624
; outer perimeter
G1 X29.353 Y18.217 F4200
G92 E0
G1 X52.749 Y18.217 E0.8171 F525
G1 X62.681 Y43.000 E1.7495
G1 X62.681 Y62.750 E2.4392
G1 X19.421 Y62.750 E3.9500
G1 X19.421 Y43.000 E4.6397
G1 X29.353 Y18.217 E5.5721
; inner perimeter
G1 X33.675 Y25.254 F4200
G92 E0
G1 X31.418 Y27.524 E0.1118 F788
G1 X29.825 Y30.299 E0.2235
G1 X29.005 Y33.393 E0.3353
G1 X29.014 Y36.593 E0.4471
G1 X29.851 Y39.682 E0.5588
G1 X31.459 Y42.449 E0.6706
G1 X33.728 Y44.706 E0.7823
G1 X36.504 Y46.298 E0.8941
G1 X39.597 Y47.118 E1.0059
G1 X42.797 Y47.110 E1.1176
G1 X45.886 Y46.273 E1.2294
G1 X48.653 Y44.665 E1.3412
G1 X50.910 Y42.396 E1.4529
G1 X52.503 Y39.620 E1.5647
G1 X53.322 Y36.527 E1.6764
G1 X53.314 Y33.326 E1.7882
G1 X52.477 Y30.238 E1.9000
G1 X50.869 Y27.470 E2.0117
G1 X48.600 Y25.214 E2.1235
G1 X45.824 Y23.621 E2.2353
G1 X42.731 Y22.801 E2.3470
G1 X39.531 Y22.810 E2.4588
G1 X36.442 Y23.647 E2.5706
G1 X33.675 Y25.254 E2.6823
G1 X33.933 Y25.590 F4200
G92 E0
G1 X31.755 Y27.781 E0.1079 F788
G1 X30.217 Y30.460 E0.2158
G1 X29.426 Y33.447 E0.3237
G1 X29.434 Y36.537 E0.4316
G1 X30.242 Y39.519 E0.5395
G1 X31.794 Y42.190 E0.6474
G1 X33.985 Y44.369 E0.7553
G1 X36.665 Y45.907 E0.8632
G1 X39.651 Y46.698 E0.9711
G1 X42.741 Y46.690 E1.0790
G1 X45.723 Y45.882 E1.1869
G1 X48.395 Y44.330 E1.2948
G1 X50.573 Y42.139 E1.4027
G1 X52.111 Y39.459 E1.5106
G1 X52.902 Y36.473 E1.6185
G1 X52.894 Y33.383 E1.7264
G1 X52.086 Y30.401 E1.8343
G1 X50.534 Y27.729 E1.9422
G1 X48.343 Y25.550 E2.0501
G1 X45.663 Y24.013 E2.1580
G1 X42.677 Y23.221 E2.2659
G1 X39.587 Y23.230 E2.3738
G1 X36.605 Y24.038 E2.4817
G1 X33.933 Y25.590 E2.5896
; outer perimeter
G1 X34.192 Y25.925 F4200
G92 E0
G1 X32.091 Y28.038 E0.1040 F525
G1 X30.609 Y30.622 E0.2081
G1 X29.846 Y33.501 E0.3121
G1 X29.854 Y36.480 E0.4162
G1 X30.633 Y39.356 E0.5202
G1 X32.129 Y41.932 E0.6242
G1 X34.242 Y44.032 E0.7283
G1 X36.826 Y45.515 E0.8323
G1 X39.705 Y46.278 E0.9363
G1 X42.684 Y46.270 E1.0404
G1 X45.560 Y45.491 E1.1444
G1 X48.136 Y43.994 E1.2485
G1 X50.236 Y41.882 E1.3525
G1 X51.719 Y39.298 E1.4565
G1 X52.482 Y36.418 E1.5606
G1 X52.474 Y33.439 E1.6646
G1 X51.695 Y30.564 E1.7687
G1 X50.199 Y27.988 E1.8727
G1 X48.086 Y25.887 E1.9767
G1 X45.502 Y24.405 E2.0808
G1 X42.623 Y23.642 E2.1848
G1 X39.643 Y23.650 E2.2889
G1 X36.768 Y24.429 E2.3929
G1 X34.192 Y25.925 E2.4969
G92 E0
G1 E-5.0000 F1800
; inner perimeter
G1 X27.425 Y50.295 F4200
G1 E0.0000 F1800
G92 E0
G1 X26.711 Y50.201 E0.0252 F788
G1 X25.997 Y50.295 E0.0503
G1 X25.332 Y50.570 E0.0755
G1 X24.760 Y51.009 E0.1006
G1 X24.322 Y51.580 E0.1258
G1 X24.046 Y52.246 E0.1509
G1 X23.952 Y52.960 E0.1761
G1 X24.046 Y53.674 E0.2012
G1 X24.322 Y54.339 E0.2264
G1 X24.760 Y54.911 E0.2515
G1 X25.332 Y55.349 E0.2767
G1 X25.997 Y55.625 E0.3018
G1 X26.711 Y55.719 E0.3270
G1 X27.425 Y55.625 E0.3522
G1 X28.091 Y55.349 E0.3773
G1 X28.662 Y54.911 E0.4025
G1 X29.101 Y54.339 E0.4276
G1 X29.376 Y53.674 E0.4528
G1 X29.470 Y52.960 E0.4779
G1 X29.376 Y52.246 E0.5031
G1 X29.101 Y51.580 E0.5282
G1 X28.662 Y51.009 E0.5534
G1 X28.091 Y50.570 E0.5785
G1 X27.425 Y50.295 E0.6037
G1 X27.316 Y50.704 F4200
G92 E0
G1 X26.711 Y50.624 E0.0213 F788
G1 X26.107 Y50.704 E0.0426
G1 X25.543 Y50.937 E0.0639
G1 X25.060 Y51.308 E0.0852
G1 X24.689 Y51.792 E0.1065
G1 X24.455 Y52.355 E0.1278
G1 X24.376 Y52.960 E0.1490
G1 X24.455 Y53.564 E0.1703
G1 X24.689 Y54.128 E0.1916
G1 X25.060 Y54.611 E0.2129
G1 X25.543 Y54.982 E0.2342
G1 X26.107 Y55.216 E0.2555
G1 X26.711 Y55.295 E0.2768
G1 X27.316 Y55.216 E0.2981
G1 X27.879 Y54.982 E0.3194
G1 X28.363 Y54.611 E0.3407
G1 X28.734 Y54.128 E0.3620
G1 X28.967 Y53.564 E0.3833
G1 X29.047 Y52.960 E0.4045
G1 X28.967 Y52.355 E0.4258
G1 X28.734 Y51.792 E0.4471
G1 X28.363 Y51.308 E0.4684
G1 X27.879 Y50.937 E0.4897
G1 X27.316 Y50.704 E0.5110
; outer perimeter
G1 X27.206 Y51.113 F4200
G92 E0
G1 X26.711 Y51.048 E0.0174 F525
G1 X26.216 Y51.113 E0.0349
G1 X25.755 Y51.304 E0.0523
G1 X25.359 Y51.608 E0.0697
G1 X25.055 Y52.004 E0.0871
G1 X24.864 Y52.465 E0.1046
G1 X24.799 Y52.960 E0.1220
G1 X24.864 Y53.455 E0.1394
G1 X25.055 Y53.916 E0.1569
G1 X25.359 Y54.312 E0.1743
G1 X25.755 Y54.615 E0.1917
G1 X26.216 Y54.806 E0.2092
G1 X26.711 Y54.872 E0.2266
G1 X27.206 Y54.806 E0.2440
G1 X27.667 Y54.615 E0.2614
G1 X28.063 Y54.312 E0.2789
G1 X28.367 Y53.916 E0.2963
G1 X28.558 Y53.455 E0.3137
G1 X28.623 Y52.960 E0.3312
G1 X28.558 Y52.465 E0.3486
G1 X28.367 Y52.004 E0.3660
G1 X28.063 Y51.608 E0.3834
G1 X27.667 Y51.304 E0.4009
G1 X27.206 Y51.113 E0.4183
; inner perimeter
G1 X52.632 Y52.960 F4200
G92 E0
G1 X52.726 Y53.674 E0.0252 F788
G1 X53.002 Y54.339 E0.0503
G1 X53.440 Y54.911 E0.0755
G1 X54.012 Y55.349 E0.1006
G1 X54.677 Y55.625 E0.1258
G1 X55.391 Y55.719 E0.1509
G1 X56.105 Y55.625 E0.1761
G1 X56.771 Y55.349 E0.2012
G1 X57.342 Y54.911 E0.2264
G1 X57.780 Y54.339 E0.2515
G1 X58.056 Y53.674 E0.2767
G1 X58.150 Y52.960 E0.3018
G1 X58.056 Y52.246 E0.3270
G1 X57.780 Y51.580 E0.3522
G1 X57.342 Y51.009 E0.3773
G1 X56.771 Y50.570 E0.4025
G1 X56.105 Y50.295 E0.4276
G1 X55.391 Y50.201 E0.4528
G1 X54.677 Y50.295 E0.4779
G1 X54.012 Y50.570 E0.5031
G1 X53.440 Y51.009 E0.5282
G1 X53.002 Y51.580 E0.5534
G1 X52.726 Y52.246 E0.5785
G1 X52.632 Y52.960 E0.6037
G1 X53.056 Y52.960 F4200
G92 E0
G1 X53.135 Y53.564 E0.0213 F788
G1 X53.368 Y54.128 E0.0426
G1 X53.740 Y54.611 E0.0639
G1 X54.223 Y54.982 E0.0852
G1 X54.787 Y55.216 E0.1065
G1 X55.391 Y55.295 E0.1277
G1 X55.995 Y55.216 E0.1490
G1 X56.559 Y54.982 E0.1703
G1 X57.042 Y54.611 E0.1916
G1 X57.414 Y54.128 E0.2129
G1 X57.647 Y53.564 E0.2342
G1 X57.726 Y52.960 E0.2555
G1 X57.647 Y52.355 E0.2768
G1 X57.414 Y51.792 E0.2981
G1 X57.042 Y51.308 E0.3194
G1 X56.559 Y50.937 E0.3407
G1 X55.995 Y50.704 E0.3620
G1 X55.391 Y50.624 E0.3832
G1 X54.787 Y50.704 E0.4045
G1 X54.223 Y50.937 E0.4258
G1 X53.740 Y51.308 E0.4471
G1 X53.368 Y51.792 E0.4684
G1 X53.135 Y52.355 E0.4897
G1 X53.056 Y52.960 E0.5110
; outer perimeter
G1 X53.479 Y52.960 F4200
G92 E0
G1 X53.544 Y53.455 E0.0174 F525
G1 X53.735 Y53.916 E0.0349
G1 X54.039 Y54.312 E0.0523
G1 X54.435 Y54.615 E0.0697
G1 X54.896 Y54.806 E0.0871
G1 X55.391 Y54.872 E0.1046
G1 X55.886 Y54.806 E0.1220
G1 X56.347 Y54.615 E0.1394
G1 X56.743 Y54.312 E0.1569
G1 X57.047 Y53.916 E0.1743
G1 X57.238 Y53.455 E0.1917
G1 X57.303 Y52.960 E0.2092
G1 X57.238 Y52.465 E0.2266
G1 X57.047 Y52.004 E0.2440
G1 X56.743 Y51.608 E0.2614
G1 X56.347 Y51.304 E0.2789
G1 X55.886 Y51.113 E0.2963
G1 X55.391 Y51.048 E0.3137
G1 X54.896 Y51.113 E0.3312
G1 X54.435 Y51.304 E0.3486
G1 X54.039 Y51.608 E0.3660
G1 X53.735 Y52.004 E0.3834
G1 X53.544 Y52.465 E0.4009
G1 X53.479 Y52.960 E0.4183
; solid layer
G1 X53.868 Y55.676 F4200
G92 E0
G1 X59.745 Y61.553 E0.2902 F630
G1 X60.339 Y61.553 E0.3110
G1 X54.785 Y55.999 E0.5853
G1 X55.391 Y56.079 E0.6066
G1 X55.451 Y56.071 E0.6087
G1 X60.933 Y61.553 E0.8795
G1 X61.484 Y61.553 E0.8987
G1 X61.484 Y61.510 E0.9002
G1 X55.976 Y56.002 E1.1723
G1 X56.198 Y55.973 E1.1801
G1 X56.440 Y55.872 E1.1892
G1 X61.484 Y60.916 E1.4383
G1 X61.484 Y60.322 E1.4591
G1 X56.860 Y55.699 E1.6875
G1 X56.951 Y55.661 E1.6909
G1 X57.214 Y55.459 E1.7025
G1 X61.484 Y59.728 E1.9134
G1 X61.484 Y59.134 E1.9341
G1 X57.550 Y55.201 E2.1284
G1 X57.597 Y55.165 E2.1304
G1 X57.819 Y54.875 E2.1432
G1 X61.484 Y58.540 E2.3242
G1 X61.484 Y57.946 E2.3449
G1 X58.077 Y54.539 E2.5132
G1 X58.092 Y54.519 E2.5141
G1 X58.256 Y54.124 E2.5290
G1 X61.484 Y57.353 E2.6884
G1 X61.484 Y56.759 E2.7092
G1 X58.414 Y53.689 E2.8608
G1 X58.483 Y53.164 E2.8793
G1 X61.484 Y56.165 E3.0275
G1 X61.484 Y55.571 E3.0482
G1 X58.455 Y52.542 E3.1978
G92 E0
G1 E-5.0000 F1800
G1 X33.911 Y45.223 F4200
G1 E0.0000 F1800
G92 E0
G1 X50.241 Y61.553 E0.8065 F630
G1 X50.835 Y61.553 E0.8273
G1 X35.304 Y46.022 E1.5943
G1 X36.367 Y46.632 E1.6371
G1 X36.559 Y46.682 E1.6440
G1 X51.429 Y61.553 E2.3785
G1 X52.023 Y61.553 E2.3992
